!!!COM: Bach, Johann Sebastian
!!!CDT: 1685/3//-1750/7/28/
!!!OTL@@DE: Valet will ich dir geben
!!!AGN: 4-Part Chorale
!!!SCT: BH 024
!!!SCT: BWV 415
**harm	**root	**kern	**kern	**kern	**kern
!	!	!bass	!tenor	!alto	!soprno
*	*Iorgan	*Iorgan	*Iorgan	*Iorgan	*Iorgan
*M4/4	*M4/4	*M4/4	*M4/4	*M4/4	*M4/4
*met(c)	*met(c)	*met(c)	*met(c)	*met(c)	*met(c)
*MM60	*MM60	*MM60	*MM60	*MM60	*MM60
*k[f#c#g#]	*k[f#c#g#]	*k[f#c#g#]	*k[f#c#g#]	*k[f#c#g#]	*k[f#c#g#]
*A:	*A:	*A:	*A:	*A:	*A:
*>[A,A,B]	*>[A,A,B]	*>[A,A,B]	*>[A,A,B]	*>[A,A,B]	*>[A,A,B]
*>A	*>A	*>A	*>A	*>A	*>A
I	4DD	8AA	8C#	4E	4A
.	.	8GG#	8BB	.	.
=1	=1	=1	=1	=1	=1
I	4DD	8AA	8C#	4A	4e
.	.	8BB	8D	.	.
Ib	4DD	8C#	8E	4A	4e
.	.	8AA	8C#	.	.
IV	4GG	8D	4D	4A	4f#
.	.	8C#	.	.	.
viiob	4CC#	4BB	8D	[4d	4g#
.	.	.	8E	.	.
=2	=2	=2	=2	=2	=2
IVb	4GG	8FF#	4F#	4d]	2a
.	.	8GG#	.	.	.
I	4DD	4AA	8E	8c#	.
.	.	.	8D	8B	.
I;	4DD;	4AAA;	4E;	4c#;	4a;
I	4DD	4A	4e	8e	4cc#
.	.	.	.	8f#	.
=3	=3	=3	=3	=3	=3
viioD7/vi	4AA#	4E#	4d	4g#	4b
vi7	4BB	8F#	4c#	4f#	4a
.	.	8E	.	.	.
viioD7/V	4GG#	4D#	4c	4f#	4a
V	4AA	4E	4B	4e	4g#
=4	=4	=4	=4	=4	=4
I;	2.DD;	2.AA;	2.c#y;	2.e;	2.a;
=:|!	=:|!	=:|!	=:|!	=:|!	=:|!
*>B	*>B	*>B	*>B	*>B	*>B
I	4DD	4AA	8c#	4e	8a
.	.	.	8d	.	8b
=5	=5	=5	=5	=5	=5
I	4DD	8A	4e	4a	4cc#
.	.	8G#	.	.	.
vi	4BB	8F#	4A	8a	4cc#
.	.	8E	.	8g#	.
Vb/V	8EE	8D#	8B	8f#	4.b
V7/V	8EE	8BB	8A	8d#	.
iii	8FF#	8C#	8G#	8e	.
viio/V	8GG#	8D#	8F#	8f#	8a
!!linebreak: 2
=6	=6	=6	=6	=6	=6
V	8AA	8E	4E	8B	8g#
v7/vii	8GG#	8D#	.	8c#	8f#
Vb/iii	4CC#	8C#	4D#	4d#	4g#
.	.	8BB#	.	.	.
iii;	4FF#;	4C#;	4G#;	4c#;	4e;
iii7	4FF#	4C#	8c#	[4e	4g#
.	.	.	8B	.	.
=7	=7	=7	=7	=7	=7
vii/V	4GG#	8F#	4A	8e]	4a
.	.	8FF#	.	8d#	.
Vb	4AA	8GG#	4B	[4e	4g#
.	.	8AA	.	.	.
II	8EE	8BB	8B	4e]	4f#
vi7b	8BB	8AA	8c#	.	.
II7	4EE	8BB	8B	4d#	4f#
.	.	8BBB	8A	.	.
=8	=8	=8	=8	=8	=8
V;	2.AA;	2.EE;	2.G#;	2.B;	2.e;
Vb	4AA	4GG#	4E	4B	4e
=9	=9	=9	=9	=9	=9
I	4DD	8AA	4E	4A	8c#
.	.	8BB	.	.	8d
I7	4DD	8C#	8A	4A	4e
.	.	8AA	8G	.	.
IV	8GG	4D	8F#	8A	4f#
viio7c	8CC#	.	8G#	8B	.
I7b	4DD	8C#	8A	4c#	4e
.	.	8BB	8G	.	.
=10	=10	=10	=10	=10	=10
V7b/ii	4BB	4AA#	2F#	4c#	4e
ii	4EE	4BB	.	4B	8d
.	.	.	.	.	8c#
VI;	4BB;	4FF#;	4F#;	4A#;	4c#;
V7b/IV	4DD	4CC#	4G	4A	4e
=11	=11	=11	=11	=11	=11
IV	4GG	8DD	4F#	4A	4d
.	.	8EE	.	.	.
vi7	4BB	8FF#	4F#	[4A	4c#
.	.	8EE	.	.	.
ii7	4EE	8DD	4F#	4A]	4B
.	.	8BBB	.	.	.
V	4AA	4EE	8E	4G#	4B
.	.	.	8D	.	.
=12	=12	=12	=12	=12	=12
I;	2.DD;	2.AAA;	2.C#;	2.E;	2.A;
==	==	==	==	==	==
*-	*-	*-	*-	*-	*-
!!chor2scor: -l 2 -s 0.6 -o %b.pmx
!!!YEC: Copyright 1994, David Huron
!!!YEC: Changes/Additions 2001 by Craig Stuart Sapp
!!!YEN: United States of America
!!!SMA: 371 Bach Chorales, edited by Ludwig Erk, C.F. Peters
!!!PDT: 1850, 1865
!!!ONB: Harmony and Root analysis done manually
